X: 1400
T: Our Highland Cousins
M:C|
L:1/8
B:O'Neill's 1400
Z:"Transcribed by Bob Safranek, rjs@gsp.org"
K:G
A | G2 dc Bcde | f2 cf Afcf | Gedc  Acde | {g}fefc TAG G :|
d | g2 dg Bgde | f2 cf Afcf | g2 dg Bgde |    fefc  AGGd  |
    g2 dg GgAe | f2 cf Afcf | gfde  fgag |    fdcA TAG G |]


